X:1
T:Stracathro, CM
T:Stracathro, CM
T:Charles Hutcheson, 1832
T:Public Domain Courtesy of the Cyber Hymnal™
C:Charles Hutcheson, 1832
Z:Public Domain
Z:Courtesy of the Cyber Hymnal™
%%score ( 1 2 ) ( 3 4 )
L:1/8
M:3/4
K:D
V:1 treble 
V:2 treble 
V:3 bass 
V:4 bass 
V:1
 [A,D]2 | [DF]4 [CE]2 | [B,D]4 [A,E]2 | ([A,F]2 [Fd]2) [Ec]2 | [DB]4 [Dd]2 | ([EA]2 [EG]2) D2 | %6
 [DF]4 [CE]2 | D4 [DF]2 | F4 [B,E]2 | z2 F2 [DA]2 | [DB]2 [Ge]2 [Fd]2 | [Ec]4 [Ec]2 | %12
 ([Dd]2 [FA]2) [EB]2 | [DF]4 [CE]2 | D4 |] %15
V:2
 x2 | x6 | x6 | x6 | x6 | x6 | x6 | D4 x2 | (D2 C2) x2 | D4 x2 | x6 | x6 | x6 | x6 | D4 |] %15
V:3
 [D,F,]2 | [D,A,]4 (A,G,) | [B,,F,]4 [C,A,]2 | ([D,F,]3 [E,^G,]) [F,^A,]2 | [B,,B,]4 [B,,F,]2 | %5
 ([C,E,]2 [D,A,]2) [B,,B,]2 | [F,,A,]3 [G,,B,] [A,,G,]2 | [D,F,]4 [D,A,]2 | A,4 [G,B,]2 | %9
 A,4 [F,A,]2 | z2 ([F,A,][G,B,]) x2 | [A,C]4 A,2 | ([F,A,]2 [D,D]2) [G,B,]2 | A,4 (A,G,) | %14
 [D,F,]4 |] %15
V:4
 x2 | x4 A,,2 | x6 | x6 | x6 | x6 | x6 | x6 | (D,2 A,2) x2 | (F,2 D,2) x2 | (G,4 E,2) | x4 (A,G,) | %12
 x6 | A,4 A,,2 | x4 |] %15

